app/assets/images/flags/1x1/is.svg

<?xml version="1.0" encoding="UTF-8" standalone="no"?>
<svg id="islenskifaninn" xmlns:rdf="http://www.w3.org/1999/02/22-rdf-syntax-ns#" xmlns="http://www.w3.org/2000/svg" height="512" width="512" version="1" y="0" x="0" xmlns:cc="http://creativecommons.org/ns#" xmlns:dc="http://purl.org/dc/elements/1.1/">
 <metadata id="metadata4595">
  <rdf:RDF>
   <cc:Work rdf:about="">
  <dc:format>image/svg+xml</dc:format>
  <dc:type rdf:resource="http://purl.org/dc/dcmitype/StillImage"/>
   </cc:Work>
  </rdf:RDF>
 </metadata>
 <defs id="defs380">
  <clipPath id="clipPath5878" clipPathUnits="userSpaceOnUse">
   <rect id="rect5880" fill-opacity="0.67" height="486" width="486" y="-.000019554" x="85.43"/>
  </clipPath>
 </defs>
 <g id="flag" fill-rule="evenodd" clip-path="url(#clipPath5878)" transform="matrix(1.0535 0 0 1.0535 -90 .0000206)" stroke-width="0pt">
  <rect id="blarfeldur" height="486" width="675" y="0" x="0" fill="#003897"/>
  <path id="hviturkross" fill-cmyk="(0 0 0 0)" d="m0 189h189v-189h108v189h378v108h-378v189h-108v-189h-189v-108z" fill="#fff"/>
  <path id="raudurkross" d="m0 216h216v-216h54v216h405v54h-405v216h-54v-216h-216v-54z" fill="#d72828"/>
 </g>
</svg>

<svg xmlns="http://www.w3.org/2000/svg" height="512" width="512" viewBox="0 0 512 512">
  <defs>
    <clipPath id="a">
      <path fill-opacity=".67" d="M85.43 0h486v486h-486z"/>
    </clipPath>
  </defs>
  <g fill-rule="evenodd" clip-path="url(#a)" transform="translate(-90) scale(1.0535)" stroke-width="0">
    <path fill="#003897" d="M0 0h675v486H0z"/>
    <path d="M0 189h189V0h108v189h378v108H297v189H189V297H0V189z" fill="#fff"/>
    <path d="M0 216h216V0h54v216h405v54H270v216h-54V270H0v-54z" fill="#d72828"/>
  </g>
</svg>
